img/menu.svg

<svg enable-background="new 0 0 92.8 92.8" viewBox="0 0 92.8 92.8" xmlns="http://www.w3.org/2000/svg"><g fill="#fff"><path d="m89.8 1.7h-86.8c-1.7 0-3 1.3-3 3v13.3c0 1.7 1.3 3 3 3h86.8c1.7 0 3-1.3 3-3v-13.3c0-1.6-1.3-3-3-3z"/><path d="m89.8 36.7h-86.8c-1.7 0-3 1.3-3 3v13.3c0 1.7 1.3 3 3 3h86.8c1.7 0 3-1.3 3-3v-13.3c0-1.6-1.3-3-3-3z"/><path d="m89.8 71.7h-86.8c-1.7 0-3 1.3-3 3v13.3c0 1.7 1.3 3 3 3h86.8c1.7 0 3-1.3 3-3v-13.3c0-1.6-1.3-3-3-3z"/></g></svg>

<?xml version="1.0" encoding="utf-8"?>
<!-- Generator: Adobe Illustrator 22.0.1, SVG Export Plug-In . SVG Version: 6.00 Build 0)  -->
<svg version="1.1" id="Capa_1" xmlns="http://www.w3.org/2000/svg" xmlns:xlink="http://www.w3.org/1999/xlink" x="0px" y="0px"
	 viewBox="0 0 92.8 92.8" style="enable-background:new 0 0 92.8 92.8;" xml:space="preserve">
<style type="text/css">
	.st0{fill:#FFFFFF;}
</style>
<g>
	<g>
		<path class="st0" d="M89.8,1.7H3c-1.7,0-3,1.3-3,3v13.3c0,1.7,1.3,3,3,3h86.8c1.7,0,3-1.3,3-3V4.7C92.8,3.1,91.5,1.7,89.8,1.7z"/>
		<path class="st0" d="M89.8,36.7H3c-1.7,0-3,1.3-3,3v13.3c0,1.7,1.3,3,3,3h86.8c1.7,0,3-1.3,3-3V39.7
			C92.8,38.1,91.5,36.7,89.8,36.7z"/>
		<path class="st0" d="M89.8,71.7H3c-1.7,0-3,1.3-3,3v13.3c0,1.7,1.3,3,3,3h86.8c1.7,0,3-1.3,3-3V74.7
			C92.8,73.1,91.5,71.7,89.8,71.7z"/>
	</g>
</g>
</svg>
